X: 1026
T: Let's shak her Weall
P: Longways for as many as will
O: Walsh, 1740s
R: reel
B: "Caledonian Country Dances" printed by John Walsh for John Johnson, London
S: http://imslp.org/wiki/Caledonian_Country_Dances_with_a_Thorough_Bass_(Various)
Z: 2013 John Chambers <jc:trillian.mit.edu>
N: The 2nd part has initial repeat but no final repeat.
N: Fixed incorrect length of V:2's final low Gs in both parts.
M: C|
L: 1/8
K: G
% - - - - - - - - - - - - - - - - - - - - - - - - -
V: 1
g |\
dG BG ABce | dG BG dG BG |\
dG BG ABce | dB ge d2 G :|
|: e/f/ |\
g/f/e/d/ B/c/d/B/ ABce | g/f/e/d/ B/c/d/B/ g/f/e/d/ B/c/d/B/ |\
cg Bg ABce | dB ge d2 G |]
% - - - - - - - - - - - - - - - - - - - - - - - - -
V: 2 clef=bass middle=d
z | g2G2 A2a2 | g2G2 g2G2 | g2G2 A2a2 | g2c2 d2G :|
|: z | g2G2 A2a2 | g2G2 g2G2 | a2g2 d2c2 | B2c2 d2G |]
% - - - - - - - - - - - - - - - - - - - - - - - - -
%%begintext align
The 1st Man turn his Partner half round and foot it.  then hold both hands and pull
round the 2d Wo. into the 2d Cu Place. the 2d Cu do the same .| The 1st and 2d Cu.
take their Partners by both hands.  then one slip up and the other down. and back
again, then fall back and surn S.  the 2d Cu slip up the middle, and the 1st Cu.
down. the 1st Cu slip up the middle, and the 2d Cu. down. then the 1st Cu cast off into
the 2d Cu. Place, and the 2d Cu. lead up.
%%endtext
